X:108
T:Ah, Surely
T:Killaghbeg House
O:england
R:reel
D:Mary Bergin: Feadoga Stain
M:C|
K:G
~A3c BG~G2|BG (3Bcd g2fg|eA~A2 BG (3Bcd|(3ege dc BG~G2|
~A3c BG~G2|BG (3Bcd ~g3a|agag (3efg fa|gedc BG~G2:|
|:bg~g2 agef|~g3e dega|bg~g2 aged|eaag a2ga|
bg~g2 agef|~g3e dega|agag (3efg fa|gedc BG~G2:|
"Variations:"
AFAc BG~G2|BGBd gedB|AFAc BGBd|(3efg dc BGdB|
AFAc BG~G2|BGBd ~g3a|bgag egfa|gedc BG~G2:|
|:bggb agea|gfge dega|bggb aged|eaag ea~a2|
bggb agea|gfge dega|(3bag ag egfa|gedc BG~G2:|


